X: 2
T: Goldies
Z: Damien Rogeau
S: https://thesession.org/tunes/10193#setting29756
R: slip jig
M: 9/8
L: 1/8
K: Ador
|: A2e ecd c2A| edc deg e2g| dcA DEG G2B| DEG GAc d2e|
A2e ecd c2A|edc deg e2g|dcA DEG G2B |DEG GAc A3:|
A2c z2 A AGE|G2E2GE G2E|DED DEG GEG|A2A ABc dBG|
A2c z2 A AGE|G2E2GE G2E|DED DEG GEG|A2A Ade dcG|
A2c z2 A AGE|G2E2GE G2E|DED DEG GEG|A2A ABc dBG|
A2c z2 A AGE|G2E2GE G2E| ded dcA cAG | ~A3 A (3Bcd e z2 ||
